src/basic/200/u25A1-square.svg

<svg width="48" height="64" viewBox="0 0 48 64" fill="none" xmlns="http://www.w3.org/2000/svg">
<path fill-rule="evenodd" clip-rule="evenodd" d="M0.01064,8.98924h0.5h46.98406h0.5v0.5v45.01616v0.5h-0.5h-46.98406h-0.5v-0.5v-45.01616zM1.01064,9.98924v44.01616h45.98406v-44.01616z" fill="black"/>
</svg>

<svg width="48" height="64" viewBox="0 0 48 64" fill="none" xmlns="http://www.w3.org/2000/svg">
<path fill-rule="evenodd" clip-rule="evenodd" d="M0.0106395 8.98924H0.51064H47.4947H47.9947V9.48924V54.5054V55.0054H47.4947H0.51064H0.0106395V54.5054V9.48924V8.98924ZM1.01064 9.98924V54.0054H46.9947V9.98924H1.01064Z" fill="black"/>
</svg>
